assets/svg/icon_search_groups.svg

<svg width="24" height="24" viewBox="0 0 24 24" fill="none" xmlns="http://www.w3.org/2000/svg">
<path fill-rule="evenodd" clip-rule="evenodd" d="M12.0543 2.66602C9.66312 2.66602 7.72468 4.59371 7.72468 6.97164C7.72468 9.34957 9.66312 11.2773 12.0543 11.2773C14.4455 11.2773 16.3839 9.34957 16.3839 6.97164C16.3839 4.59371 14.4455 2.66602 12.0543 2.66602ZM9.09193 6.97164C9.09193 5.34463 10.4182 4.02569 12.0543 4.02569C13.6903 4.02569 15.0167 5.34463 15.0167 6.97164C15.0167 8.59865 13.6903 9.91759 12.0543 9.91759C10.4182 9.91759 9.09193 8.59865 9.09193 6.97164Z" fill="#9A9A9A"/>
<path d="M17.5338 4.47436C17.1562 4.47436 16.8502 4.77874 16.8502 5.1542C16.8502 5.52966 17.1562 5.83404 17.5338 5.83404C18.7885 5.83404 19.5847 6.65503 19.5847 7.42032C19.5847 8.1856 18.7885 9.0066 17.5338 9.0066C17.1562 9.0066 16.8502 9.31098 16.8502 9.68644C16.8502 10.0619 17.1562 10.3663 17.5338 10.3663C19.2995 10.3663 20.9519 9.15811 20.9519 7.42032C20.9519 5.68252 19.2995 4.47436 17.5338 4.47436Z" fill="#9A9A9A"/>
<path d="M7.27639 5.1542C7.27639 4.77874 6.97031 4.47436 6.59276 4.47436C4.82699 4.47436 3.17464 5.68252 3.17464 7.42032C3.17464 9.15811 4.82699 10.3663 6.59276 10.3663C6.97031 10.3663 7.27639 10.0619 7.27639 9.68644C7.27639 9.31098 6.97031 9.0066 6.59276 9.0066C5.33809 9.0066 4.54189 8.1856 4.54189 7.42032C4.54189 6.65503 5.33809 5.83404 6.59276 5.83404C6.97031 5.83404 7.27639 5.52966 7.27639 5.1542Z" fill="#9A9A9A"/>
<path fill-rule="evenodd" clip-rule="evenodd" d="M12.0605 12.6317C10.4341 12.6317 8.93078 13.0675 7.81408 13.8078C6.70217 14.545 5.90784 15.638 5.90784 16.9373C5.90784 18.2366 6.70217 19.3296 7.81408 20.0668C8.93078 20.8071 10.4341 21.2429 12.0605 21.2429C13.6868 21.2429 15.1901 20.8071 16.3069 20.0668C17.4187 19.3296 18.2131 18.2366 18.2131 16.9373C18.2131 15.638 17.4187 14.545 16.3069 13.8078C15.1901 13.0675 13.6868 12.6317 12.0605 12.6317ZM7.27509 16.9373C7.27509 16.2341 7.70503 15.5143 8.5725 14.9391C9.43519 14.3672 10.6664 13.9913 12.0605 13.9913C13.4545 13.9913 14.6858 14.3672 15.5484 14.9391C16.4159 15.5143 16.8458 16.2341 16.8458 16.9373C16.8458 17.6405 16.4159 18.3603 15.5484 18.9355C14.6858 19.5074 13.4545 19.8833 12.0605 19.8833C10.6664 19.8833 9.43519 19.5074 8.5725 18.9355C7.70503 18.3603 7.27509 17.6405 7.27509 16.9373Z" fill="#9A9A9A"/>
<path d="M18.683 14.0757C18.7638 13.7089 19.1284 13.4769 19.4972 13.5573C20.3739 13.7485 21.164 14.0938 21.7506 14.5712C22.3366 15.048 22.7689 15.7036 22.7689 16.4875C22.7689 17.2714 22.3366 17.9269 21.7506 18.4038C21.164 18.8811 20.3739 19.2265 19.4972 19.4177C19.1284 19.4981 18.7638 19.266 18.683 18.8993C18.6021 18.5325 18.8355 18.1699 19.2043 18.0895C19.9266 17.932 20.5037 17.6615 20.8847 17.3515C21.2662 17.0411 21.4016 16.7379 21.4016 16.4875C21.4016 16.237 21.2662 15.9338 20.8847 15.6235C20.5037 15.3134 19.9266 15.043 19.2043 14.8854C18.8355 14.805 18.6021 14.4424 18.683 14.0757Z" fill="#9A9A9A"/>
<path d="M4.60567 13.5573C4.97446 13.4769 5.33899 13.7089 5.41986 14.0757C5.50073 14.4424 5.26733 14.805 4.89853 14.8854C4.1763 15.043 3.5991 15.3134 3.21816 15.6235C2.83671 15.9338 2.70123 16.237 2.70123 16.4875C2.70123 16.7379 2.83671 17.0411 3.21816 17.3515C3.5991 17.6615 4.1763 17.932 4.89853 18.0895C5.26733 18.1699 5.50073 18.5325 5.41986 18.8993C5.33899 19.266 4.97446 19.4981 4.60567 19.4177C3.72891 19.2265 2.93886 18.8811 2.3523 18.4038C1.76626 17.9269 1.33398 17.2714 1.33398 16.4875C1.33398 15.7036 1.76626 15.048 2.3523 14.5712C2.93886 14.0938 3.72891 13.7485 4.60567 13.5573Z" fill="#9A9A9A"/>
</svg>

<svg xmlns="http://www.w3.org/2000/svg" width="24" height="24" fill="none"><path fill="#9A9A9A" fill-rule="evenodd" d="M12.054 2.666c-2.39 0-4.33 1.928-4.33 4.306s1.94 4.305 4.33 4.305 4.33-1.927 4.33-4.305-1.939-4.306-4.33-4.306M9.092 6.972a2.954 2.954 0 0 1 2.962-2.946 2.954 2.954 0 0 1 2.963 2.946 2.954 2.954 0 0 1-2.963 2.946 2.954 2.954 0 0 1-2.962-2.946" clip-rule="evenodd"/><path fill="#9A9A9A" d="M17.534 4.474a.68.68 0 0 0-.684.68c0 .376.306.68.684.68 1.255 0 2.05.821 2.05 1.586s-.796 1.587-2.05 1.587a.68.68 0 0 0-.684.68c0 .375.306.68.684.68 1.765 0 3.418-1.209 3.418-2.947s-1.653-2.946-3.418-2.946M7.276 5.154a.68.68 0 0 0-.683-.68c-1.766 0-3.418 1.209-3.418 2.946s1.652 2.946 3.418 2.946a.68.68 0 0 0 .683-.68.68.68 0 0 0-.683-.68c-1.255 0-2.051-.82-2.051-1.586 0-.765.796-1.586 2.05-1.586a.68.68 0 0 0 .684-.68"/><path fill="#9A9A9A" fill-rule="evenodd" d="M12.06 12.632c-1.626 0-3.13.436-4.246 1.176-1.112.737-1.906 1.83-1.906 3.13s.794 2.392 1.906 3.129c1.117.74 2.62 1.176 4.246 1.176s3.13-.436 4.247-1.176c1.112-.737 1.906-1.83 1.906-3.13s-.794-2.392-1.906-3.13c-1.117-.74-2.62-1.175-4.246-1.175m-4.785 4.305c0-.703.43-1.423 1.297-1.998.863-.572 2.094-.948 3.489-.948 1.393 0 2.625.376 3.487.948.868.575 1.298 1.295 1.298 1.998s-.43 1.423-1.298 1.999c-.862.571-2.094.947-3.488.947s-2.625-.376-3.488-.947c-.867-.576-1.297-1.296-1.297-1.999" clip-rule="evenodd"/><path fill="#9A9A9A" d="M18.683 14.076a.684.684 0 0 1 .814-.519c.877.191 1.667.537 2.254 1.014.586.477 1.018 1.133 1.018 1.917 0 .783-.432 1.439-1.018 1.916s-1.377.823-2.254 1.014a.68.68 0 1 1-.293-1.328c.723-.158 1.3-.428 1.68-.738.382-.31.518-.614.518-.864 0-.251-.136-.554-.517-.864s-.958-.581-1.68-.739a.68.68 0 0 1-.522-.81M4.606 13.557a.68.68 0 1 1 .293 1.328c-.723.158-1.3.428-1.68.739-.382.31-.518.613-.518.864 0 .25.136.553.517.864s.958.58 1.68.738a.68.68 0 1 1-.292 1.328c-.877-.191-1.667-.537-2.254-1.014-.586-.477-1.018-1.133-1.018-1.916 0-.784.432-1.44 1.018-1.917s1.377-.822 2.254-1.014"/></svg>
